zhihu.svg

<svg viewBox="0 0 24 24" xmlns="http://www.w3.org/2000/svg"><path d="M13.9586 21.068L15.876 21.0685L16.5073 23.2269L19.946 21.0685L24 21.0685L24 3.26205L13.9586 3.26205C13.9586 3.26205 13.9586 21.068 13.9586 21.068ZM15.9991 5.19515L21.9598 5.19515L21.9598 19.1354L19.6731 19.1354L17.3895 20.569L16.9738 19.1389L15.9994 19.1357L15.9994 5.19541L15.9991 5.19515ZM12.2634 11.4096L7.9807 11.4096C8.12346 9.19178 8.16065 7.18718 8.16065 5.39684L12.3482 5.39684C12.3482 5.39684 12.5093 3.55018 11.6463 3.57114L4.40238 3.57114C4.68789 2.49719 5.04674 1.38867 5.47632 0.242437C5.47632 0.242437 3.50577 0.242437 2.83468 2.00789C2.55703 2.73608 1.75341 5.53881 0.322183 8.40178C0.804147 8.34939 2.39856 8.30486 3.3376 6.58394C3.51048 6.10197 3.54322 6.03911 3.75801 5.39474L6.12069 5.39474C6.12069 6.2539 6.02272 10.8692 5.98291 11.4062L1.70521 11.4062C0.743902 11.4062 0.431411 13.3393 0.431411 13.3393L5.79929 13.3393C5.43913 17.4205 3.50603 20.8598-1.77636e-15 23.5787C1.67718 24.0575 3.34861 23.5027 4.17449 22.7683C4.17449 22.7683 6.05573 21.0578 7.08724 17.0999L11.5043 22.4157C11.5043 22.4157 12.1521 20.2149 11.4027 19.1425C10.7819 18.4122 9.10599 16.4367 8.39142 15.7206L7.19437 16.6706C7.55139 15.5265 7.76618 14.4153 7.83873 13.3414L12.8847 13.3414C12.8847 13.3414 12.8776 11.4083 12.2634 11.4083L12.2634 11.4096Z" fill="#0f88eb"/></svg>

<svg viewBox="0 0 24 24" xmlns="http://www.w3.org/2000/svg"><path d="M13.959 21.068h1.917l.631 2.159 3.439-2.159H24V3.262H13.959v17.806Zm2.04-15.873h5.96v13.94h-2.286L17.39 20.57l-.416-1.43-.975-.003V5.196Zm-3.736 6.215H7.981c.142-2.218.18-4.223.18-6.013h4.187s.161-1.847-.702-1.826H4.402A35.486 35.486 0 0 1 5.476.242s-1.97 0-2.641 1.766c-.278.728-1.082 3.53-2.513 6.394.482-.053 2.077-.097 3.016-1.818.172-.482.205-.545.42-1.19h2.363c0 .86-.098 5.475-.138 6.012H1.705c-.961 0-1.274 1.933-1.274 1.933H5.8C5.44 17.421 3.506 20.86 0 23.58c1.677.479 3.349-.076 4.174-.81 0 0 1.882-1.711 2.913-5.67l4.417 5.317s.648-2.201-.101-3.274c-.621-.73-2.297-2.705-3.012-3.421l-1.197.95c.357-1.144.572-2.256.645-3.33h5.046s-.007-1.933-.622-1.933v.002Z" fill="#0f88eb"/></svg>
